images/icons/reseaux/discord.svg

<?xml version="1.0" ?><svg height="250px" version="1.1" viewBox="0 0 250 250" width="250px" xmlns="http://www.w3.org/2000/svg" xmlns:xlink="http://www.w3.org/1999/xlink"><title/><desc/><g fill="none" fill-rule="evenodd" id="discord_squircle" stroke="none" stroke-width="1"><rect fill="#6F85D5" height="250" id="squircle" rx="32" width="250" x="0" y="0"/><path d="M250,208 L250,218 C250,235.673112 235.673112,250 218,250 L32,250 C14.326888,250 2.164332e-15,235.673112 0,218 L0,208 C2.164332e-15,225.673112 14.326888,240 32,240 L218,240 C235.673112,240 250,225.673112 250,208 Z" fill="#000000" fill-opacity="0.25" id="shadow"/><path d="M250,163.689412 L250,208.154297 C250,225.827409 235.673112,240.154297 218,240.154297 L124.59513,240.154297 L52.0664063,159.867188 C57.4401042,135.019531 72.6184896,116.920573 97.6015625,105.570313 C118.660749,96.0027445 138.019294,96.7468258 164.105469,98.4384766 C175.540365,99.180013 181.297526,95.0898438 181.376953,86.1679688 L250,163.689412 Z" fill="#000000" id="3d-shadow" opacity="0.15452939"/><path d="M160.488014,178.001039 C160.488014,178.001039 155.957192,172.626039 152.181507,167.876039 C168.668664,163.251039 174.961473,153.001039 174.961473,153.001039 C169.80137,156.376039 164.892979,158.751039 160.488014,160.376039 C154.195205,163.001039 148.15411,164.751039 142.23887,165.751039 C130.156678,168.001039 119.081336,167.376039 109.642123,165.626039 C102.468322,164.251039 96.3013699,162.251039 91.1412671,160.251039 C88.2465753,159.126039 85.1001712,157.751039 81.9537671,156.001039 C81.5761986,155.751039 81.1986301,155.626039 80.8210616,155.376039 C80.5693493,155.251039 80.4434932,155.126039 80.317637,155.001039 C78.052226,153.751039 76.7936644,152.876039 76.7936644,152.876039 C76.7936644,152.876039 82.8347603,162.876039 98.8184932,167.626039 C95.0428082,172.376039 90.3861301,178.001039 90.3861301,178.001039 C62.5719178,177.126039 52,159.001039 52,159.001039 C52,118.751039 70.1232877,86.1260388 70.1232877,86.1260388 C88.2465753,72.6260388 105.48887,73.0010388 105.48887,73.0010388 L106.747432,74.5010388 C84.0933219,81.0010388 73.6472603,90.8760388 73.6472603,90.8760388 C73.6472603,90.8760388 76.4160959,89.3760388 81.072774,87.2510388 C94.5393836,81.3760388 105.237158,79.7510388 109.642123,79.3760388 C110.39726,79.2510388 111.026541,79.1260388 111.781678,79.1260388 C119.458904,78.1260388 128.142979,77.8760388 137.204623,78.8760388 C149.160959,80.2510388 161.998288,83.7510388 175.087329,90.8760388 C175.087329,90.8760388 165.144692,81.5010388 143.749144,75.0010388 L145.51113,73.0010388 C145.51113,73.0010388 162.753425,72.6260388 180.876712,86.1260388 C180.876712,86.1260388 199,118.751039 199,159.001039 C199,159.001039 188.302226,177.126039 160.488014,178.001039 Z M102.267855,121.751039 C95.2476387,121.751039 89.7053627,127.606895 89.7053627,134.751039 C89.7053627,141.895183 95.3708004,147.751039 102.267855,147.751039 C109.288071,147.751039 114.830347,141.895183 114.830347,134.751039 C114.953509,127.606895 109.288071,121.751039 102.267855,121.751039 Z M147.221871,121.751039 C140.201655,121.751039 134.659379,127.606895 134.659379,134.751039 C134.659379,141.895183 140.324817,147.751039 147.221871,147.751039 C154.242087,147.751039 159.784363,141.895183 159.784363,134.751039 C159.784363,127.606895 154.242087,121.751039 147.221871,121.751039 Z" fill="#F7F8F7" fill-rule="nonzero" id="Shape"/></g></svg>

<svg xmlns="http://www.w3.org/2000/svg" width="250" height="250"><defs/><g fill="none" fill-rule="evenodd"><rect width="250" height="250" fill="#6F85D5" rx="32"/><path fill="#000" fill-opacity=".25" d="M250 208v10c0 17.673-14.327 32-32 32H32c-17.673 0-32-14.327-32-32v-10c0 17.673 14.327 32 32 32h186c17.673 0 32-14.327 32-32z"/><path fill="#000" d="M250 163.69v44.464c0 17.673-14.327 32-32 32h-93.405l-72.529-80.287c5.374-24.847 20.552-42.946 45.536-54.297 21.059-9.567 40.417-8.823 66.503-7.132 11.435.742 17.193-3.348 17.272-12.27L250 163.689z" opacity=".155"/><path fill="#F7F8F7" fill-rule="nonzero" d="M160.488 178.001s-4.53-5.375-8.306-10.125c16.487-4.625 22.78-14.875 22.78-14.875-5.16 3.375-10.069 5.75-14.474 7.375-6.293 2.625-12.334 4.375-18.25 5.375-12.081 2.25-23.157 1.625-32.596-.125-7.174-1.375-13.34-3.375-18.5-5.375-2.895-1.125-6.042-2.5-9.188-4.25-.378-.25-.755-.375-1.133-.625-.252-.125-.378-.25-.503-.375-2.266-1.25-3.524-2.125-3.524-2.125s6.04 10 22.024 14.75c-3.775 4.75-8.432 10.375-8.432 10.375-27.814-.875-38.386-19-38.386-19 0-40.25 18.123-72.875 18.123-72.875 18.124-13.5 35.366-13.125 35.366-13.125l1.258 1.5c-22.654 6.5-33.1 16.375-33.1 16.375s2.77-1.5 7.426-3.625c13.466-5.875 24.164-7.5 28.57-7.875.754-.125 1.384-.25 2.139-.25 7.677-1 16.361-1.25 25.423-.25 11.956 1.375 24.793 4.875 37.882 12 0 0-9.942-9.375-31.338-15.875l1.762-2s17.242-.375 35.366 13.125c0 0 18.123 32.625 18.123 72.875 0 0-10.698 18.125-38.512 19zm-58.22-56.25c-7.02 0-12.563 5.856-12.563 13s5.666 13 12.563 13c7.02 0 12.562-5.856 12.562-13 .124-7.144-5.542-13-12.562-13zm44.954 0c-7.02 0-12.563 5.856-12.563 13s5.666 13 12.563 13c7.02 0 12.562-5.856 12.562-13s-5.542-13-12.562-13z"/></g></svg>
